X: 9829
T: Denis O'Keeffe's
R: slide
M: 12/8
K: Gmajor
GA|:BAB dBG FGF E2G|FD/E/F DEF Gz D D2A|
BAB dBG FGF E2G|1 FD/E/F DEF (G3 G3):|2 FD/E/F DEF G3 GAB/c/||
d2B g2B dBA A2B|c2A ec/d/e dBG G2B/c/|
d2B g2B dBA A2d|e2d cBA G3 GA/B/c|
d2B g2B dBA A2B|c2A eEe dBG G2B/c/|
d2B g2B dBA A2g|fed cBA G3 G/D/E/F/G||

